source/img/icons/share.svg

<svg width="14" height="16" viewBox="0 0 14 16" fill="none" xmlns="http://www.w3.org/2000/svg">
<path d="M10.209 3.37109L3.79956 7.31846L10.209 3.37109ZM3.79956 8.89741L10.209 12.8448L3.79956 8.89741Z" fill="#999999"/>
<path d="M3.79956 8.89741L10.209 12.8448M10.209 3.37109L3.79956 7.31846L10.209 3.37109Z" stroke="#999999" stroke-width="1.5" stroke-linecap="round" stroke-linejoin="round"/>
<path d="M10.0064 2.58175C10.0057 2.19871 10.1375 1.82847 10.3771 1.54003C10.6167 1.25158 10.9478 1.06459 11.3087 1.01389C11.6697 0.963197 12.0358 1.05225 12.339 1.26446C12.6421 1.47667 12.8616 1.79757 12.9565 2.16737C13.0514 2.53718 13.0153 2.93067 12.8549 3.27454C12.6945 3.61841 12.4207 3.88922 12.0846 4.0365C11.7484 4.18379 11.3728 4.19751 11.0278 4.07512C10.6827 3.95272 10.3917 3.70256 10.209 3.37122C10.0767 3.13135 10.0068 2.85906 10.0064 2.58175Z" fill="#999999" stroke="#999999" stroke-linecap="round" stroke-linejoin="round"/>
<path d="M10.0064 13.6347C10.0068 13.3574 10.0767 13.0851 10.209 12.8453C10.3917 12.5139 10.6827 12.2638 11.0278 12.1414C11.3728 12.019 11.7484 12.0327 12.0846 12.18C12.4207 12.3273 12.6945 12.5981 12.8549 12.9419C13.0153 13.2858 13.0514 13.6793 12.9565 14.0491C12.8616 14.4189 12.6421 14.7398 12.339 14.952C12.0358 15.1642 11.6697 15.2533 11.3087 15.2026C10.9478 15.1519 10.6167 14.9649 10.3771 14.6765C10.1375 14.388 10.0057 14.0178 10.0064 13.6347Z" fill="#999999" stroke="#999999" stroke-linecap="round" stroke-linejoin="round"/>
<path d="M1 8.10838C1.00058 7.76132 1.10986 7.42412 1.31092 7.14895C1.51199 6.87378 1.79364 6.67596 2.11232 6.58608C2.431 6.49621 2.76895 6.51929 3.07391 6.65176C3.37887 6.78422 3.63384 7.0187 3.79939 7.31891C3.93113 7.55894 4.00049 7.83122 4.00049 8.10838C4.00049 8.38554 3.93113 8.65782 3.79939 8.89785C3.63384 9.19806 3.37887 9.43253 3.07391 9.565C2.76895 9.69747 2.431 9.72055 2.11232 9.63067C1.79364 9.5408 1.51199 9.34298 1.31092 9.06781C1.10986 8.79264 1.00058 8.45544 1 8.10838Z" fill="#999999" stroke="#999999" stroke-linecap="round" stroke-linejoin="round"/>
</svg>

<svg width="14" height="16" fill="none" xmlns="http://www.w3.org/2000/svg"><path d="M10.209 3.371l-6.41 3.947 6.41-3.947zm-6.41 5.526l6.41 3.948-6.41-3.948z" fill="#999"/><path d="M3.8 8.897l6.409 3.948m0-9.474l-6.41 3.947 6.41-3.947z" stroke="#999" stroke-width="1.5" stroke-linecap="round" stroke-linejoin="round"/><path d="M10.006 2.582c0-.383.131-.754.371-1.042a1.447 1.447 0 011.962-.276c.303.213.523.534.617.903.095.37.06.764-.101 1.108a1.54 1.54 0 01-.77.762 1.432 1.432 0 01-1.057.038 1.52 1.52 0 01-.819-.704 1.641 1.641 0 01-.203-.79zm0 11.053c0-.278.07-.55.203-.79a1.52 1.52 0 01.819-.704c.345-.122.72-.108 1.057.039.336.147.61.418.77.762.16.344.196.737.101 1.107-.094.37-.314.69-.617.903-.303.212-.67.301-1.03.25a1.481 1.481 0 01-.932-.525 1.627 1.627 0 01-.37-1.042zM1 8.108c0-.347.11-.684.31-.96a1.5 1.5 0 01.802-.562c.319-.09.657-.067.962.066.305.132.56.367.725.667a1.643 1.643 0 010 1.579c-.165.3-.42.535-.725.667a1.432 1.432 0 01-.962.066 1.5 1.5 0 01-.801-.563A1.633 1.633 0 011 8.108z" fill="#999" stroke="#999" stroke-linecap="round" stroke-linejoin="round"/></svg>
